assets/dollar-coin.svg

<svg xmlns="http://www.w3.org/2000/svg" fill="none" viewBox="0 0 28 28">
  <path fill="#2A2238" fill-rule="evenodd" d="M14 26.25c-3.2489 0-6.36474-1.2906-8.66206-3.5879C3.04062 20.3647 1.75 17.2489 1.75 14c0-3.2489 1.29062-6.36474 3.58794-8.66206S10.7511 1.75 14 1.75s6.3647 1.29062 8.6621 3.58794C24.9594 7.63526 26.25 10.7511 26.25 14s-1.2906 6.3647-3.5879 8.6621C20.3647 24.9594 17.2489 26.25 14 26.25ZM14 28c3.713 0 7.274-1.475 9.8995-4.1005C26.525 21.274 28 17.713 28 14s-1.475-7.27399-4.1005-9.89949C21.274 1.475 17.713 0 14 0S6.72601 1.475 4.10051 4.10051C1.475 6.72601 0 10.287 0 14s1.475 7.274 4.10051 9.8995C6.72601 26.525 10.287 28 14 28ZM9.625 16.6442c.133 1.6695 1.4525 2.9698 3.8185 3.1238V21h1.05v-1.2407c2.45-.1715 3.8815-1.4806 3.8815-3.381 0-1.7273-1.0955-2.618-3.0538-3.08l-.8277-.196V9.7475c1.05.119 1.7185.693 1.8795 1.4875h1.841c-.133-1.60825-1.512-2.8665-3.7205-3.003V7h-1.05v1.25825C11.3523 8.463 9.926 9.72125 9.926 11.501c0 1.575 1.0605 2.576 2.8227 2.9873l.6948.1714v3.5595c-1.0762-.1627-1.7885-.7525-1.9495-1.575H9.625Zm3.8097-3.7905c-1.0324-.2397-1.5924-.728-1.5924-1.463 0-.8225.6037-1.43845 1.6012-1.6187v3.08h-.0088v.0017Zm1.2111 2.0878c1.2547.2905 1.8339.7613 1.8339 1.5925 0 .9485-.721 1.5995-1.9862 1.7185v-3.346l.1523.035Zm-7.4517 5.8644C8.99914 22.6109 11.4473 23.625 14 23.625c2.5527 0 5.0009-1.0141 6.8059-2.8191 1.805-1.805 2.8191-4.2532 2.8191-6.8059 0-2.5527-1.0141-5.00086-2.8191-6.8059C19.0009 5.38906 16.5527 4.375 14 4.375c-2.5527 0-5.00086 1.01406-6.8059 2.8191C5.38906 8.99914 4.375 11.4473 4.375 14c0 2.5527 1.01406 5.0009 2.8191 6.8059Zm10.8241 2.8948c-1.2739.5277-2.6393.7993-4.0182.7993-2.7848 0-5.45549-1.1062-7.42462-3.0754C4.60625 19.4555 3.5 16.7848 3.5 14c0-2.7848 1.10625-5.45549 3.07538-7.42462C8.54451 4.60625 11.2152 3.5 14 3.5c1.3789 0 2.7443.27159 4.0182.79926 1.2739.52768 2.4314 1.3011 3.4064 2.27612.975.97501 1.7485 2.13252 2.2761 3.40644C24.2284 11.2557 24.5 12.6211 24.5 14c0 1.3789-.2716 2.7443-.7993 4.0182-.5276 1.2739-1.3011 2.4314-2.2761 3.4064-.975.975-2.1325 1.7485-3.4064 2.2761Z" clip-rule="evenodd"/>
</svg>

<svg width="28" height="28" viewBox="0 0 28 28" fill="none" xmlns="http://www.w3.org/2000/svg">
<path fill-rule="evenodd" clip-rule="evenodd" d="M14 26.25C10.7511 26.25 7.63526 24.9594 5.33794 22.6621C3.04062 20.3647 1.75 17.2489 1.75 14C1.75 10.7511 3.04062 7.63526 5.33794 5.33794C7.63526 3.04062 10.7511 1.75 14 1.75C17.2489 1.75 20.3647 3.04062 22.6621 5.33794C24.9594 7.63526 26.25 10.7511 26.25 14C26.25 17.2489 24.9594 20.3647 22.6621 22.6621C20.3647 24.9594 17.2489 26.25 14 26.25ZM14 28C17.713 28 21.274 26.525 23.8995 23.8995C26.525 21.274 28 17.713 28 14C28 10.287 26.525 6.72601 23.8995 4.10051C21.274 1.475 17.713 0 14 0C10.287 0 6.72601 1.475 4.10051 4.10051C1.475 6.72601 0 10.287 0 14C0 17.713 1.475 21.274 4.10051 23.8995C6.72601 26.525 10.287 28 14 28ZM9.625 16.6442C9.758 18.3137 11.0775 19.614 13.4435 19.768V21H14.4935V19.7593C16.9435 19.5878 18.375 18.2787 18.375 16.3783C18.375 14.651 17.2795 13.7603 15.3212 13.2983L14.4935 13.1023V9.7475C15.5435 9.8665 16.212 10.4405 16.373 11.235H18.214C18.081 9.62675 16.702 8.3685 14.4935 8.232V7H13.4435V8.25825C11.3523 8.463 9.926 9.72125 9.926 11.501C9.926 13.076 10.9865 14.077 12.7487 14.4883L13.4435 14.6597V18.2192C12.3673 18.0565 11.655 17.4667 11.494 16.6442H9.625ZM13.4347 12.8537C12.4023 12.614 11.8423 12.1257 11.8423 11.3907C11.8423 10.5682 12.446 9.95225 13.4435 9.772V12.852H13.4347V12.8537ZM14.6458 14.9415C15.9005 15.232 16.4797 15.7028 16.4797 16.534C16.4797 17.4825 15.7587 18.1335 14.4935 18.2525V14.9065L14.6458 14.9415ZM7.1941 20.8059C8.99914 22.6109 11.4473 23.625 14 23.625C16.5527 23.625 19.0009 22.6109 20.8059 20.8059C22.6109 19.0009 23.625 16.5527 23.625 14C23.625 11.4473 22.6109 8.99914 20.8059 7.1941C19.0009 5.38906 16.5527 4.375 14 4.375C11.4473 4.375 8.99914 5.38906 7.1941 7.1941C5.38906 8.99914 4.375 11.4473 4.375 14C4.375 16.5527 5.38906 19.0009 7.1941 20.8059ZM18.0182 23.7007C16.7443 24.2284 15.3789 24.5 14 24.5C11.2152 24.5 8.54451 23.3938 6.57538 21.4246C4.60625 19.4555 3.5 16.7848 3.5 14C3.5 11.2152 4.60625 8.54451 6.57538 6.57538C8.54451 4.60625 11.2152 3.5 14 3.5C15.3789 3.5 16.7443 3.77159 18.0182 4.29926C19.2921 4.82694 20.4496 5.60036 21.4246 6.57538C22.3996 7.55039 23.1731 8.7079 23.7007 9.98182C24.2284 11.2557 24.5 12.6211 24.5 14C24.5 15.3789 24.2284 16.7443 23.7007 18.0182C23.1731 19.2921 22.3996 20.4496 21.4246 21.4246C20.4496 22.3996 19.2921 23.1731 18.0182 23.7007Z" fill="#2A2238"/>
</svg>
